X: 35522
T: Ruined Old Cottage In The Glen, The
R: reel
M: 4/4
K: Dmajor
A||B2 AF DEFA|(3Bcd Ad Bdef|dBAF DEFA|BdAF FEEA|
B2 AF DEFA|(3Bcd Ad Bdef|dBAF DEFA|Bd AF FE E2||
Beed AddA|Beef gfed|Beed (3Bcd ef|dBAF FEE2|
Beed AddA|Beef g3a|bgaf gfef|dBAF FE E2||

